day131/svg/news.svg

<svg height="512pt" viewBox="0 -44 512.001 512" width="512pt" xmlns="http://www.w3.org/2000/svg"><path d="m452.140625 423.105469c-33.003906 0-59.859375-26.851563-59.859375-59.859375v-291.625c0-4.140625 3.359375-7.5 7.5-7.5h91.179688c11.601562 0 21.039062 9.4375 21.039062 21.039062v278.085938c0 33.007812-26.851562 59.859375-59.859375 59.859375zm-44.859375-343.984375v284.125c0 24.734375 20.125 44.859375 44.859375 44.859375s44.859375-20.121094 44.859375-44.859375v-278.085938c0-3.328125-2.710938-6.039062-6.039062-6.039062zm0 0"/><path d="m357.089844 97.128906h-119.097656c-4.140626 0-7.5-3.355468-7.5-7.5v-31.828125c0-4.140625 3.359374-7.5 7.5-7.5h119.097656c4.140625 0 7.5 3.359375 7.5 7.5v31.828125c0 4.144532-3.359375 7.5-7.5 7.5zm-111.597656-15h104.097656v-16.828125h-104.097656zm0 0"/><path d="m357.089844 151.277344h-119.097656c-4.140626 0-7.5-3.355469-7.5-7.5 0-4.144532 3.359374-7.5 7.5-7.5h119.097656c4.140625 0 7.5 3.355468 7.5 7.5 0 4.144531-3.359375 7.5-7.5 7.5zm0 0"/><path d="m357.089844 214.136719h-309.035156c-4.144532 0-7.5-3.355469-7.5-7.5s3.355468-7.5 7.5-7.5h309.035156c4.140625 0 7.5 3.355469 7.5 7.5s-3.359375 7.5-7.5 7.5zm0 0"/><path d="m357.089844 276.996094h-309.035156c-4.144532 0-7.5-3.359375-7.5-7.5 0-4.144532 3.355468-7.5 7.5-7.5h309.035156c4.140625 0 7.5 3.355468 7.5 7.5 0 4.140625-3.359375 7.5-7.5 7.5zm0 0"/><path d="m357.089844 339.855469h-309.035156c-4.144532 0-7.5-3.355469-7.5-7.5s3.355468-7.5 7.5-7.5h309.035156c4.140625 0 7.5 3.355469 7.5 7.5s-3.359375 7.5-7.5 7.5zm0 0"/><path d="m452.140625 423.105469h-194.320313c-4.140624 0-7.5-3.355469-7.5-7.5s3.359376-7.5 7.5-7.5h154.730469c-12.421875-10.976563-20.269531-27.019531-20.269531-44.859375v-341.84375c0-3.53125-2.871094-6.402344-6.398438-6.402344h-364.480468c-3.53125 0-6.402344 2.871094-6.402344 6.402344v340.480468c0 25.488282 20.734375 46.222657 46.21875 46.222657h168.601562c4.144532 0 7.5 3.355469 7.5 7.5s-3.355468 7.5-7.5 7.5h-168.601562c-33.753906 0-61.21875-27.464844-61.21875-61.222657v-340.480468c0-11.800782 9.601562-21.402344 21.402344-21.402344h364.480468c11.800782 0 21.398438 9.601562 21.398438 21.402344v341.84375c0 24.734375 20.125 44.859375 44.859375 44.859375 4.144531 0 7.5 3.355469 7.5 7.5s-3.355469 7.5-7.5 7.5zm0 0"/><path d="m204.113281 167.972656h-87.113281c-4.140625 0-7.5-3.355468-7.5-7.5 0-4.144531 3.359375-7.5 7.5-7.5h79.613281v-87.671875h-141.058593v87.671875h33.445312c4.140625 0 7.5 3.355469 7.5 7.5 0 4.144532-3.359375 7.5-7.5 7.5h-40.945312c-4.144532 0-7.5-3.355468-7.5-7.5v-102.671875c0-4.140625 3.355468-7.5 7.5-7.5h156.058593c4.140625 0 7.5 3.359375 7.5 7.5v102.671875c0 4.144532-3.359375 7.5-7.5 7.5zm0 0"/></svg>

<?xml version="1.0" encoding="UTF-8"?>
<svg width="512px" height="424px" viewBox="0 0 512 424" version="1.1" xmlns="http://www.w3.org/2000/svg" xmlns:xlink="http://www.w3.org/1999/xlink">
    <!-- Generator: Sketch 53.2 (72643) - https://sketchapp.com -->
    <title>news</title>
    <desc>Created with Sketch.</desc>
    <g id="Page-1" stroke="none" stroke-width="1" fill="none" fill-rule="evenodd">
        <g id="news" fill="#BBBBBB" fill-rule="nonzero">
            <path d="M452.140625,423.105469 C419.136719,423.105469 392.28125,396.253906 392.28125,363.246094 L392.28125,71.621094 C392.28125,67.480469 395.640625,64.121094 399.78125,64.121094 L490.960938,64.121094 C502.5625,64.121094 512,73.558594 512,85.160156 L512,363.246094 C512,396.253906 485.148438,423.105469 452.140625,423.105469 Z M407.28125,79.121094 L407.28125,363.246094 C407.28125,387.980469 427.40625,408.105469 452.140625,408.105469 C476.875,408.105469 497,387.984375 497,363.246094 L497,85.160156 C497,81.832031 494.289062,79.121094 490.960938,79.121094 L407.28125,79.121094 Z" id="Shape"></path>
            <path d="M357.089844,97.128906 L237.992188,97.128906 C233.851562,97.128906 230.492188,93.773438 230.492188,89.628906 L230.492188,57.800781 C230.492188,53.660156 233.851562,50.300781 237.992188,50.300781 L357.089844,50.300781 C361.230469,50.300781 364.589844,53.660156 364.589844,57.800781 L364.589844,89.628906 C364.589844,93.773438 361.230469,97.128906 357.089844,97.128906 Z M245.492188,82.128906 L349.589844,82.128906 L349.589844,65.300781 L245.492188,65.300781 L245.492188,82.128906 Z" id="Shape"></path>
            <path d="M357.089844,151.277344 L237.992188,151.277344 C233.851562,151.277344 230.492188,147.921875 230.492188,143.777344 C230.492188,139.632812 233.851562,136.277344 237.992188,136.277344 L357.089844,136.277344 C361.230469,136.277344 364.589844,139.632812 364.589844,143.777344 C364.589844,147.921875 361.230469,151.277344 357.089844,151.277344 Z" id="Path"></path>
            <path d="M357.089844,214.136719 L48.054688,214.136719 C43.910156,214.136719 40.554688,210.78125 40.554688,206.636719 C40.554688,202.492188 43.910156,199.136719 48.054688,199.136719 L357.089844,199.136719 C361.230469,199.136719 364.589844,202.492188 364.589844,206.636719 C364.589844,210.78125 361.230469,214.136719 357.089844,214.136719 Z" id="Path"></path>
            <path d="M357.089844,276.996094 L48.054688,276.996094 C43.910156,276.996094 40.554688,273.636719 40.554688,269.496094 C40.554688,265.351562 43.910156,261.996094 48.054688,261.996094 L357.089844,261.996094 C361.230469,261.996094 364.589844,265.351562 364.589844,269.496094 C364.589844,273.636719 361.230469,276.996094 357.089844,276.996094 Z" id="Path"></path>
            <path d="M357.089844,339.855469 L48.054688,339.855469 C43.910156,339.855469 40.554688,336.5 40.554688,332.355469 C40.554688,328.210938 43.910156,324.855469 48.054688,324.855469 L357.089844,324.855469 C361.230469,324.855469 364.589844,328.210938 364.589844,332.355469 C364.589844,336.5 361.230469,339.855469 357.089844,339.855469 Z" id="Path"></path>
            <path d="M452.140625,423.105469 L257.820312,423.105469 C253.679688,423.105469 250.320312,419.75 250.320312,415.605469 C250.320312,411.460938 253.679688,408.105469 257.820312,408.105469 L412.550781,408.105469 C400.128906,397.128906 392.28125,381.085938 392.28125,363.246094 L392.28125,21.402344 C392.28125,17.871094 389.410156,15 385.882812,15 L21.402344,15 C17.871094,15 15,17.871094 15,21.402344 L15,361.882812 C15,387.371094 35.734375,408.105469 61.21875,408.105469 L229.820312,408.105469 C233.964844,408.105469 237.320312,411.460938 237.320312,415.605469 C237.320312,419.75 233.964844,423.105469 229.820312,423.105469 L61.21875,423.105469 C27.464844,423.105469 2.84217094e-14,395.640625 2.84217094e-14,361.882812 L2.84217094e-14,21.402344 C2.84217094e-14,9.601562 9.601562,-2.84217094e-14 21.402344,-2.84217094e-14 L385.882812,-2.84217094e-14 C397.683594,-2.84217094e-14 407.28125,9.601562 407.28125,21.402344 L407.28125,363.246094 C407.28125,387.980469 427.40625,408.105469 452.140625,408.105469 C456.285156,408.105469 459.640625,411.460938 459.640625,415.605469 C459.640625,419.75 456.285156,423.105469 452.140625,423.105469 L452.140625,423.105469 Z" id="Path"></path>
            <path d="M204.113281,167.972656 L117,167.972656 C112.859375,167.972656 109.5,164.617188 109.5,160.472656 C109.5,156.328125 112.859375,152.972656 117,152.972656 L196.613281,152.972656 L196.613281,65.300781 L55.554688,65.300781 L55.554688,152.972656 L89,152.972656 C93.140625,152.972656 96.5,156.328125 96.5,160.472656 C96.5,164.617188 93.140625,167.972656 89,167.972656 L48.054688,167.972656 C43.910156,167.972656 40.554688,164.617188 40.554688,160.472656 L40.554688,57.800781 C40.554688,53.660156 43.910156,50.300781 48.054688,50.300781 L204.113281,50.300781 C208.253906,50.300781 211.613281,53.660156 211.613281,57.800781 L211.613281,160.472656 C211.613281,164.617188 208.253906,167.972656 204.113281,167.972656 Z" id="Path"></path>
        </g>
    </g>
</svg>
